X:1
T:鹊桥仙
T:鹊桥仙
T:Arrangement for Violin and Flute
T:Source: Internet
T:Original by 瞿耀庆(简谱)
%%score 1 2 3
L:1/8
Q:1/4=40
M:2/4
K:Ab
V:1 treble nm="Flute" snm="Fl."
V:2 treble nm="Violin" snm="Vln."
V:3 treble-8 nm="Classical Guitar" snm="Guit."
V:1
 c4 | !breath!A4 | F2 GC | !breath!F4 | !breath!c4 | z B/c/ fe/g/ | !breath!f4 | z f/a/ bf/a/ | %8
 !breath!e4 | z e/f/ a/b/f | e3 c | !breath!B3 B/c/ | F>F G/F/E | C3 !breath!E | A>A G/F/E | %15
 !breath!F4 | c3 B | c/e/c/B/ !breath!A2 | B>c A/B/A/F/ | !breath!E3 E/F/ | AB/c/ F/A/A/F/ | %21
 !breath!E3 C | G>C E/F/G | F4 |[Q:1/4=80] z4 | .F.c .e.c/.e/ | .f.f/.f/ .f/.e/!breath!.f | %27
 .c.f .e.f/.e/ | .c.c/.c/ .c/.B/!breath!.c | .c.f/.e/ .f.e/.c/ | .f/.e/.f/.g/ .c.B/!breath!.A/ | %31
 .c/.B/.c/.e/ .f/.e/.f/.g/ | .f.f/.f/ .f/.g/.f | .F.c .e.f/.e/ | .f.f/.f/ .f/.a/.f | %35
 .c.f .a.f/.e/ | .c.c/.c/ .c/.e/.c | .c.f/.e/ .f.e/.c/ | .f/.e/.f/.a/ .c.B/.A/ | %39
 .c/.B/.c/.e/ .f/.e/.f/.a/ | .f.f/.f/ .f/.a/.f | .c/.B/.c/.e/ .f/.e/.f/.a/ | %42
[Q:1/4=60] .f.f/.f/[Q:1/4=40] !tenuto!f!tenuto!a | c'4 |[Q:1/4=40] F>c B/c/E/G/ | F4 | c>f ed/c/ | %47
 B4 | cB/c/ e>c | Bc/B/ A2 | B>c E/F/G | F4 | F>A Bc/B/ | A3 B | c>f e/f/B/d/ | c4 | f>b ag/f/ | %57
 e3 c | f>a e/f/A/B/ | c4 | cf/a/ f/e/e/c/ | B3 c | e>c B/c/E | F4 | e3 c | B2 ce | f4- | f4 |] %68
V:2
 f>a be/g/ | f3 e | f>a bc/e/ | f4 | F>c B/c/E/G/ | F4 | c>f ed/c/ | B4 | cB/c/ e>c | Bc/B/ A2 | %10
 B>c E/F/G | F4 | F>A Bc/B/ | A3 B | c>f e/f/B/d/ | c4 | f>b ag/f/ | e3 c | f>a e/f/A/B/ | c4 | %20
 cf/a/ f/e/e/c/ | B3 c | e>c B/c/E | F4 | .F.c .a.c | .F.c .a.c | .F.c .a.c | .F.c .a.c | %28
 .F.c .a.c | .F.c .a.c | .F.c .a.c | .F.c .a.c | .F.c .a.c | .F.c .a.c | .F.c .a.c | .F.c .a.c | %36
 .F.c .a.c | .F.c .a.c | .F.c .a.c | .F.c .a.c | .F.c .a.c | .F.c .a.c | .F.c !tenuto!a!tenuto!c | %43
 a4 | z2 z c/e/ | a>b c'g/f/ | e3 !breath!f | g>c ef/a/ | !breath!e3 c/e/ | f>f ef/a/ | %50
 !breath!g3 f/g/ | c/e/c- !breath!c2 | a3 g | f/e/f/a/ f!breath!e | e>f a>b | gf/e/ !breath!f2 | %56
 a3 b | c/B/c/e/ f/e/f/a/ | !breath!b3 f/e/ | f>a f/e/e/c/ | e2 f/a/a/f/ | !breath!e3 f/a/ | %62
 b>c' e/f/b | !breath!a4 | b3 c' | e2 fb | a4- | a4 |] %68
V:3
 !arpeggio![FAc] z !arpeggio![GBe] z | !arpeggio![FAc] z z2 | !arpeggio![FAc] z !arpeggio![GBe] z | %3
 !arpeggio![FAc] z z2 | !arpeggio![FAc] z !arpeggio![FA=d] z | !arpeggio![FAc] z z2 | %6
 !arpeggio![FAc] z !arpeggio![GBe] z | !arpeggio![FB=d] z z2 | %8
 !arpeggio![EAc] z !arpeggio![EAc] z | !arpeggio![EGB] z z2 | z4 | z4 | z4 | z4 | z4 | z4 | z4 | %17
 z4 | z4 | z4 | z4 | z4 | z4 | z4 | z4 | z4 | z4 | z4 | z4 | z4 | z4 | z4 | z4 | z4 | z4 | z4 | %36
 z4 | z4 | z4 | z4 | z4 | z4 | z4 | z4 | z4 | z4 | z4 | z4 | z4 | z4 | z4 | z4 | z4 | z4 | z4 | %55
 z4 | z4 | z4 | z4 | z4 | z4 | z4 | z4 | z4 | z4 | z4 | z4 | z4 |] %68

